assets/Tired face/Flat/tired_face_flat.svg

<svg width="32" height="32" viewBox="0 0 32 32" fill="none" xmlns="http://www.w3.org/2000/svg">
<path d="M15.9989 29.9978C25.3333 29.9978 29.9978 23.7303 29.9978 15.9989C29.9978 8.26751 25.3333 2 15.9989 2C6.66443 2 2 8.26751 2 15.9989C2 23.7303 6.66443 29.9978 15.9989 29.9978Z" fill="#FFB02E"/>
<path fill-rule="evenodd" clip-rule="evenodd" d="M8.95171 7.1996C9.49215 6.72494 9.82675 6.07306 10.0174 5.36917C10.0896 5.10263 10.3642 4.94508 10.6307 5.01727C10.8973 5.08946 11.0548 5.36405 10.9826 5.63059C10.7577 6.46109 10.3423 7.30921 9.61161 7.95095C8.87301 8.59966 7.85473 8.99988 6.5 8.99988C6.22386 8.99988 6 8.77602 6 8.49988C6 8.22374 6.22386 7.99988 6.5 7.99988C7.64527 7.99988 8.4192 7.6673 8.95171 7.1996ZM9.44719 10.1054C8.95321 9.85844 8.35254 10.0587 8.10555 10.5526C7.85856 11.0466 8.05878 11.6473 8.55276 11.8943L10.7639 12.9999L8.55276 14.1054C8.05878 14.3524 7.85856 14.9531 8.10555 15.4471C8.35254 15.941 8.95321 16.1413 9.44719 15.8943L13.4472 13.8943C13.786 13.7249 14 13.3786 14 12.9999C14 12.6211 13.786 12.2748 13.4472 12.1054L9.44719 10.1054ZM22.5528 10.1054C23.0468 9.85844 23.6475 10.0587 23.8945 10.5526C24.1414 11.0466 23.9412 11.6473 23.4472 11.8943L21.2361 12.9999L23.4472 14.1054C23.9412 14.3524 24.1414 14.9531 23.8945 15.4471C23.6475 15.941 23.0468 16.1413 22.5528 15.8943L18.5528 13.8943C18.214 13.7249 18 13.3786 18 12.9999C18 12.6211 18.214 12.2748 18.5528 12.1054L22.5528 10.1054ZM21.9826 5.36917C22.1733 6.07306 22.5079 6.72494 23.0483 7.1996C23.5808 7.6673 24.3547 7.99988 25.5 7.99988C25.7761 7.99988 26 8.22374 26 8.49988C26 8.77602 25.7761 8.99988 25.5 8.99988C24.1453 8.99988 23.127 8.59966 22.3884 7.95095C21.6577 7.30921 21.2423 6.46109 21.0174 5.63059C20.9452 5.36405 21.1027 5.08946 21.3693 5.01727C21.6358 4.94508 21.9104 5.10263 21.9826 5.36917Z" fill="#402A32"/>
<path d="M10.3427 18C8.67067 19.353 7.49311 21.2929 7.12339 23.5063C6.9869 24.3234 7.67127 25 8.4997 25H23.5003C24.3287 25 25.0131 24.3234 24.8766 23.5063C24.5069 21.2929 23.3293 19.353 21.6573 18L16 17L10.3427 18Z" fill="#BB1D80"/>
<path fill-rule="evenodd" clip-rule="evenodd" d="M21.6574 18H10.3428C11.8885 16.7492 13.8568 16 16.0001 16C18.1434 16 20.1117 16.7492 21.6574 18Z" fill="white"/>
</svg>

<svg xmlns="http://www.w3.org/2000/svg" width="32" height="32" fill="none"><path fill="#FFB02E" d="M15.999 29.998c9.334 0 13.999-6.268 13.999-14 0-7.73-4.665-13.998-14-13.998C6.665 2 2 8.268 2 15.999c0 7.731 4.664 13.999 13.999 13.999Z"/><path fill="#402A32" fill-rule="evenodd" d="M8.952 7.2c.54-.475.875-1.127 1.065-1.83a.5.5 0 0 1 .966.26c-.225.831-.64 1.68-1.371 2.321C8.873 8.6 7.855 9 6.5 9a.5.5 0 0 1 0-1c1.145 0 1.92-.333 2.452-.8Zm.495 2.905a1 1 0 0 0-.894 1.79L10.763 13l-2.21 1.105a1 1 0 0 0 .894 1.79l4-2a1 1 0 0 0 0-1.79l-4-2Zm13.106 0a1 1 0 0 1 .894 1.79L21.237 13l2.21 1.105a1 1 0 0 1-.894 1.79l-4-2a1 1 0 0 1 0-1.79l4-2Zm-.57-4.736c.19.704.525 1.356 1.065 1.83.533.468 1.307.8 2.452.8a.5.5 0 0 1 0 1c-1.355 0-2.373-.4-3.112-1.048-.73-.642-1.146-1.49-1.37-2.32a.5.5 0 1 1 .965-.262Z" clip-rule="evenodd"/><path fill="#BB1D80" d="M10.343 18a8.993 8.993 0 0 0-3.22 5.506C6.987 24.323 7.671 25 8.5 25h15c.829 0 1.513-.677 1.377-1.494A8.993 8.993 0 0 0 21.657 18L16 17l-5.657 1Z"/><path fill="#fff" fill-rule="evenodd" d="M21.657 18H10.343A8.962 8.962 0 0 1 16 16c2.143 0 4.112.75 5.657 2Z" clip-rule="evenodd"/></svg>
